X:1
T: Mr F. Garden Jr. of Troup's Strathspey
C:R. Mackintosh
R:Strathspey
Q: 128
K:G
M:4/4
L:1/16
|:d2|BG3 G3D B,3D GB3|E2AB cBAG FA3 Dd3|BG3 G3D B,3D G3D|Ec3 Fd3 BG3 G2d2|
BG3 G3D B,3D GB3|E2AB cBAG FA3 Dd3|BG3 G3D B,3D G3D|Ec3 Fd3 BG3 G2d2|
gfga gd3 ec3 dF3|gfga g2f2 ea3 a3b|g3a gd3 ec3 dB3|cBAG Fd3 BG3 Gd3|
gfga gd3 ec3 dF3|gfga g2f2 ea3 a3f|gb3 ab3 ga3 fg3|ea3 fd3 ggg2 g2:|
